icons/memsql.svg

<?xml version="1.0" encoding="UTF-8"?>
<svg width="512px" height="82px" viewBox="0 0 512 82" version="1.1" xmlns="http://www.w3.org/2000/svg" xmlns:xlink="http://www.w3.org/1999/xlink" preserveAspectRatio="xMidYMid">
    <defs>
        <linearGradient x1="49.9941514%" y1="-0.264931598%" x2="49.9941514%" y2="100.054891%" id="linearGradient-1">
            <stop stop-color="#FF7BFF" offset="0%"></stop>
            <stop stop-color="#F46BFF" offset="7.2%"></stop>
            <stop stop-color="#D945FF" offset="26.6%"></stop>
            <stop stop-color="#C527FF" offset="45.8%"></stop>
            <stop stop-color="#B611FF" offset="64.6%"></stop>
            <stop stop-color="#AD04FF" offset="82.9%"></stop>
            <stop stop-color="#AA00FF" offset="100%"></stop>
        </linearGradient>
        <linearGradient x1="50.0172414%" y1="-0.00578611218%" x2="50.0172414%" y2="100.283724%" id="linearGradient-2">
            <stop stop-color="#FF7BFF" offset="0%"></stop>
            <stop stop-color="#F46BFF" offset="7.2%"></stop>
            <stop stop-color="#D945FF" offset="26.6%"></stop>
            <stop stop-color="#C527FF" offset="45.8%"></stop>
            <stop stop-color="#B611FF" offset="64.6%"></stop>
            <stop stop-color="#AD04FF" offset="82.9%"></stop>
            <stop stop-color="#AA00FF" offset="100%"></stop>
        </linearGradient>
        <linearGradient x1="49.9718347%" y1="98.9352373%" x2="49.9718347%" y2="-167.255427%" id="linearGradient-3">
            <stop stop-color="#FF7BFF" offset="0%"></stop>
            <stop stop-color="#F46BFF" offset="7.2%"></stop>
            <stop stop-color="#D945FF" offset="26.6%"></stop>
            <stop stop-color="#C527FF" offset="45.8%"></stop>
            <stop stop-color="#B611FF" offset="64.6%"></stop>
            <stop stop-color="#AD04FF" offset="82.9%"></stop>
            <stop stop-color="#AA00FF" offset="100%"></stop>
        </linearGradient>
        <linearGradient x1="49.9668361%" y1="267.208442%" x2="49.9668361%" y2="-0.149229828%" id="linearGradient-4">
            <stop stop-color="#FF7BFF" offset="0%"></stop>
            <stop stop-color="#F46BFF" offset="7.2%"></stop>
            <stop stop-color="#D945FF" offset="26.6%"></stop>
            <stop stop-color="#C527FF" offset="45.8%"></stop>
            <stop stop-color="#B611FF" offset="64.6%"></stop>
            <stop stop-color="#AD04FF" offset="82.9%"></stop>
            <stop stop-color="#AA00FF" offset="100%"></stop>
        </linearGradient>
        <linearGradient x1="49.9870567%" y1="100.01349%" x2="49.9870567%" y2="-0.097464214%" id="linearGradient-5">
            <stop stop-color="#FF7BFF" offset="0%"></stop>
            <stop stop-color="#F46BFF" offset="7.2%"></stop>
            <stop stop-color="#D945FF" offset="26.6%"></stop>
            <stop stop-color="#C527FF" offset="45.8%"></stop>
            <stop stop-color="#B611FF" offset="64.6%"></stop>
            <stop stop-color="#AD04FF" offset="82.9%"></stop>
            <stop stop-color="#AA00FF" offset="100%"></stop>
        </linearGradient>
    </defs>
    <g>
				<path d="M36.9288231,36.7946882 C39.6029967,33.5858609 44.0151907,29.9758737 51.9305091,29.9758737 C57.5459945,29.9758737 61.2362137,31.6337753 63.5356696,34.2008975 C66.2900374,37.3295681 67.4133608,40.3781577 67.4133608,50.0312703 L67.4133608,74.9001718 L56.9039877,74.9001718 L56.9039877,52.705293 C56.9039877,44.7903517 56.3427032,39.2548343 48.4273847,39.2548343 C41.876048,39.2548343 38.9342081,44.3090352 38.9342081,51.4220337 L38.9342081,74.9001718 L28.4253253,74.9001718 L28.4253253,52.705293 C28.4253253,44.7903517 27.863739,39.2548343 19.9485337,39.2548343 C13.5040221,39.2548343 10.4555834,44.3090352 10.4555834,51.4220337 L10.4555834,74.9001718 L0,74.9001718 L0,31.0454828 L10.5090714,31.0454828 L10.5090714,36.6610059 C12.6215833,32.9708244 17.3279236,29.9491297 24.2270455,29.9491297 C28.7462155,29.9491297 32.516629,31.339629 35.0837135,34.1741535 C35.83247,35.0298483 36.3672745,35.8587991 36.9288231,36.7946882 Z M116.402784,64.979242 C114.477518,68.0278316 108.567811,76.0231179 95.7589822,76.0231179 C82.7630584,76.0231179 73.9386703,66.7977585 73.9386703,52.6249478 C73.9386703,39.094144 83.2443749,30.0559548 95.4915422,30.0559548 C109.476881,30.0559548 116.215312,39.7361508 116.215312,53.1866095 C116.215312,53.935366 116.108563,55.1118757 116.108563,55.8606322 L84.1802263,55.8606322 C84.9289828,61.8506845 88.5924203,67.011635 96.3470484,67.011635 C104.262367,67.011635 107.765491,61.6632124 109.155877,59.4705063 L116.402784,64.979242 Z M84.4476663,48.0256589 L105.813443,48.0256589 C105.546003,42.3030467 101.401249,38.4525143 95.4915422,38.4525143 C89.50149,38.4525143 84.7151063,42.7843632 84.4476663,48.0256589 Z M159.882341,36.7946882 C162.556363,33.5858609 166.968558,29.9758737 174.883876,29.9758737 C180.499361,29.9758737 184.189581,31.6337753 186.489414,34.2008975 C189.243404,37.3295681 190.366728,40.3781577 190.366728,50.0312703 L190.366728,74.9001718 L179.857354,74.9001718 L179.857354,52.705293 C179.857354,44.7903517 179.29607,39.2548343 171.380752,39.2548343 C164.829415,39.2548343 161.887952,44.3090352 161.887952,51.4220337 L161.887952,74.9001718 L151.378579,74.9001718 L151.378579,52.705293 C151.378579,44.7903517 150.817294,39.2548343 142.901976,39.2548343 C136.457389,39.2548343 133.409177,44.3090352 133.409177,51.4220337 L133.409177,74.9001718 L122.899803,74.9001718 L122.899803,31.0454828 L133.435958,31.0454828 L133.435958,36.6610059 C135.548319,32.9708244 140.254735,29.9491297 147.153857,29.9491297 C151.672801,29.9491297 155.443365,31.339629 158.010261,34.1741535 C158.759017,35.0298483 159.320679,35.8587991 159.882341,36.7946882 Z M241.843079,27.3287081 C237.324135,22.9967461 231.44121,20.1889657 224.862714,20.1889657 C218.792694,20.1889657 214.54119,22.7025998 214.54119,26.8473916 C214.54119,31.0991594 217.535839,32.837293 223.49911,33.9871341 L234.115233,36.0996459 C246.255273,38.506455 253.87637,43.3464021 253.87637,54.8983763 C253.87637,68.4827436 241.816297,76.0234952 226.28026,76.0234952 C211.144816,76.0234952 200.716165,67.9210819 196.678161,62.3323782 L206.812967,53.6415215 C210.850971,59.0431304 217.616185,63.8562958 226.681231,63.8562958 C234.302328,63.8562958 238.741303,60.8616469 238.741303,56.0481042 C238.741303,51.5023788 234.890771,50.245524 228.900719,49.2025458 L220.424116,47.5715013 C208.470793,45.2448866 199.405747,40.9130377 199.405747,28.0774647 C199.405747,16.3115762 210.316091,8.12893094 224.67562,8.12893094 C236.254376,8.12893094 245.506517,12.4609307 251.095598,18.4508321 L241.843079,27.3287081 Z M348.564083,9.3049502 L348.564083,61.7431804 L374.796967,61.7431804 L374.796967,74.8462311 L333.990678,74.8462311 L333.990678,9.3049502 L348.564083,9.3049502 Z M322.253495,67.3058568 C320.755982,65.8083437 318.536495,64.5250844 315.381155,63.5888558 C319.499128,57.8934025 321.691834,50.4058371 321.691834,41.7953256 C321.691834,21.8201233 309.471448,8.15563721 290.244814,8.15563721 C271.044961,8.15563721 258.797794,21.8201233 258.797794,41.7953256 C258.797794,61.5300582 270.296205,75.4350517 290.512254,75.4350517 C307.733277,75.4350517 317.54708,74.7398586 324.606515,79.0449258 C325.783024,74.9537352 325.301708,70.3544463 322.253495,67.3058568 Z M290.218032,62.9740079 C279.254501,62.9740079 273.39798,55.1390346 273.39798,41.7149805 C273.39798,28.2913412 279.441596,20.162184 290.218032,20.162184 C300.994468,20.162184 307.037707,28.2913412 307.037707,41.7149805 C307.037707,55.1390346 301.181563,62.9740079 290.218032,62.9740079 Z" fill="#000000"></path>
				<path d="M430.985769,6.19649783 C428.273648,2.68166115 425.150372,0.449502876 421.404703,0.00736685898 C420.955826,0.0177061117 420.510722,0.0526958628 420.065617,0.122671593 C406.489926,2.27053535 399.085346,21.4112306 398.738315,40.5520503 C399.085346,59.6926814 406.489926,78.8333125 420.069389,80.981131 C420.510722,81.0512915 420.955826,81.0863718 421.404703,81.0965564 C425.150372,80.6544694 428.273648,78.4214021 430.985769,74.9073387 C423.875411,67.0538823 420.431508,53.1805742 420.201412,40.5520503 C420.431508,27.9232246 423.871639,14.049992 430.985769,6.19649783 Z" fill="url(#linearGradient-1)"></path>
				<path d="M490.607158,0.120996792 C490.165826,0.0510210623 489.720721,0.0160313112 489.271844,0.00569205848 C489.185087,0.00410024358 489.098329,0.000920385864 489.011571,0.000920385864 C486.303223,0.000920385864 471.803373,0.00251220076 468.506581,0.000920385864 C468.400963,0.000920385864 468.291573,0.00410024358 468.182183,0.00728387337 C470.713244,0.253004267 473.040613,1.06809271 475.152974,2.36747008 C476.805142,3.38294614 478.313972,4.67676725 479.690778,6.19483812 C486.804908,14.0483323 490.245039,27.9216026 490.475136,40.5501642 C490.245039,53.1790654 486.804908,67.0523734 479.690778,74.9058299 C478.313972,76.4229577 476.805142,77.7175332 475.152974,78.7333525 C473.040613,80.0324546 470.713244,80.8475996 468.182183,81.0935388 C468.291573,81.0965564 468.400963,81.0995741 468.506581,81.0995741 C471.803373,81.0980652 486.303223,81.0995741 489.011571,81.0995741 C489.098329,81.0995741 489.185087,81.0973108 489.271844,81.0950476 C489.720721,81.0844858 490.165826,81.0497827 490.607158,80.9796221 C504.186622,78.8310492 511.594974,59.6911726 511.938232,40.5501642 C511.594974,21.4096086 504.186622,2.26886432 490.607158,0.120996792 Z" fill="url(#linearGradient-2)"></path>
				<path d="M461.833784,69.3484344 C460.860589,71.4204342 459.868534,73.2744082 458.84253,74.9329888 C458.669014,75.2113678 458.699191,75.5685831 458.910427,75.8171627 C461.188759,78.4949575 463.776402,80.3183777 466.760111,80.932094 C467.227849,81.0282819 467.706902,81.0784505 468.182183,81.0942932 C470.713244,80.8487312 473.040613,80.0335862 475.152974,78.734107 C476.805142,77.7186649 478.313972,76.4248437 479.690778,74.9069615 C475.458512,69.4238759 472.229618,60.8220401 469.193099,51.0346417 C469.079936,50.6800669 468.578251,50.6808213 468.472633,51.036905 C466.522471,57.5161951 464.406338,63.8638399 461.833784,69.3484344 Z" fill="url(#linearGradient-3)"></path>
				<path d="M430.985769,6.19468723 C435.218035,11.6776597 438.44693,20.2794577 441.483449,30.0669315 C441.592839,30.4215819 442.098297,30.4207897 442.203915,30.0645551 C444.154077,23.5851518 446.27021,17.2378088 448.842764,11.7532143 C449.815959,9.68091274 450.808014,7.82727824 451.83779,6.1684336 C452.007533,5.89092218 451.981129,5.53306559 451.76612,5.28497634 C449.487788,2.60670251 446.903918,0.783282319 443.916436,0.169381176 C443.444927,0.0723634525 442.965874,0.0222665482 442.483048,0.00636348751 C442.37743,0.00317985772 442.271812,0.000795907448 442.166194,0.000795907448 C438.873174,0.0015918149 424.373325,0.000795907448 421.664976,0 C421.578218,0 421.491461,0.00238395027 421.404703,0.00477167261 C425.150372,0.447703598 428.273648,2.67986187 430.985769,6.19468723 Z" fill="url(#linearGradient-4)"></path>
				<path d="M475.152974,2.36755307 C473.040613,1.06817946 470.713244,0.253087252 468.182183,0.00736685898 C467.706902,0.0224777843 467.227849,0.0725746886 466.760111,0.16958864 C455.315641,2.52103118 449.774466,22.6390781 444.591637,40.5505415 C440.559291,54.5094756 436.677828,67.5302951 430.985769,74.9058299 C428.273648,78.4198933 425.150372,80.6529606 421.404703,81.0950476 C421.491461,81.0965564 421.578218,81.0999513 421.664976,81.0999513 C424.373325,81.0999513 438.873174,81.0980652 442.166194,81.0999513 C442.275584,81.0999513 442.384974,81.0965564 442.490592,81.0935388 C442.969646,81.0784505 443.444927,81.0282819 443.916436,80.9313396 C455.360906,78.5790748 460.902082,58.4610995 466.081138,40.549787 C470.113485,26.5904757 473.994948,13.5696939 479.690778,6.19412142 C478.313972,4.67684269 476.805142,3.38302158 475.152974,2.36755307 Z" fill="url(#linearGradient-5)"></path>
		</g>
</svg>

<svg xmlns="http://www.w3.org/2000/svg" viewBox="0 0 511.938 81.1">
  <defs>
    <linearGradient id="a" x1="657.863" x2="657.863" y1="-.131" y2="51.169" gradientTransform="scale(.63062 1.58575)" gradientUnits="userSpaceOnUse">
      <stop offset="0%" stop-color="#FF7BFF"/>
      <stop offset="7.2%" stop-color="#F46BFF"/>
      <stop offset="26.6%" stop-color="#D945FF"/>
      <stop offset="45.8%" stop-color="#C527FF"/>
      <stop offset="64.6%" stop-color="#B611FF"/>
      <stop offset="82.9%" stop-color="#AD04FF"/>
      <stop offset="100%" stop-color="#A0F"/>
    </linearGradient>
    <linearGradient id="b" x1="667.181" x2="667.181" y1="-.003" y2="59.739" gradientTransform="scale(.73453 1.3614)" gradientUnits="userSpaceOnUse">
      <stop offset="0%" stop-color="#FF7BFF"/>
      <stop offset="7.2%" stop-color="#F46BFF"/>
      <stop offset="26.6%" stop-color="#D945FF"/>
      <stop offset="45.8%" stop-color="#C527FF"/>
      <stop offset="64.6%" stop-color="#B611FF"/>
      <stop offset="82.9%" stop-color="#AD04FF"/>
      <stop offset="100%" stop-color="#A0F"/>
    </linearGradient>
    <linearGradient id="c" x1="564.362" x2="564.362" y1="67.153" y2=".041" gradientTransform="scale(.83139 1.2028)" gradientUnits="userSpaceOnUse">
      <stop offset="0%" stop-color="#FF7BFF"/>
      <stop offset="7.2%" stop-color="#F46BFF"/>
      <stop offset="26.6%" stop-color="#D945FF"/>
      <stop offset="45.8%" stop-color="#C527FF"/>
      <stop offset="64.6%" stop-color="#B611FF"/>
      <stop offset="82.9%" stop-color="#AD04FF"/>
      <stop offset="100%" stop-color="#A0F"/>
    </linearGradient>
    <linearGradient id="d" x1="435.152" x2="435.152" y1="81.333" y2="-.045" gradientTransform="scale(1.00348 .99653)" gradientUnits="userSpaceOnUse">
      <stop offset="0%" stop-color="#FF7BFF"/>
      <stop offset="7.2%" stop-color="#F46BFF"/>
      <stop offset="26.6%" stop-color="#D945FF"/>
      <stop offset="45.8%" stop-color="#C527FF"/>
      <stop offset="64.6%" stop-color="#B611FF"/>
      <stop offset="82.9%" stop-color="#AD04FF"/>
      <stop offset="100%" stop-color="#A0F"/>
    </linearGradient>
    <linearGradient id="e" x1="531.425" x2="531.425" y1="68.766" y2="-.061" gradientTransform="scale(.8478 1.17953)" gradientUnits="userSpaceOnUse">
      <stop offset="0%" stop-color="#FF7BFF"/>
      <stop offset="7.2%" stop-color="#F46BFF"/>
      <stop offset="26.6%" stop-color="#D945FF"/>
      <stop offset="45.8%" stop-color="#C527FF"/>
      <stop offset="64.6%" stop-color="#B611FF"/>
      <stop offset="82.9%" stop-color="#AD04FF"/>
      <stop offset="100%" stop-color="#A0F"/>
    </linearGradient>
  </defs>
  <path d="M36.929 36.795c2.674-3.21 7.086-6.82 15.002-6.82 5.615 0 9.305 1.659 11.605 4.226 2.754 3.129 3.877 6.177 3.877 15.83v24.87H56.904V52.704c0-7.915-.561-13.45-8.477-13.45-6.551 0-9.493 5.054-9.493 12.167V74.9H28.425V52.705c0-7.915-.561-13.45-8.476-13.45-6.445 0-9.493 5.054-9.493 12.167V74.9H0V31.045h10.51v5.616c2.112-3.69 6.818-6.712 13.717-6.712 4.52 0 8.29 1.39 10.857 4.225.748.856 1.283 1.685 1.845 2.62zm79.474 28.184c-1.925 3.049-7.835 11.044-20.644 11.044-12.996 0-21.82-9.225-21.82-23.398 0-13.53 9.305-22.569 21.553-22.569 13.985 0 20.723 9.68 20.723 23.13 0 .75-.106 1.926-.106 2.675H84.18c.749 5.99 4.412 11.15 12.167 11.15 7.915 0 11.418-5.348 12.809-7.54zM84.448 48.026h21.365c-.267-5.723-4.412-9.573-10.321-9.573-5.99 0-10.777 4.331-11.044 9.573zm75.434-11.231c2.674-3.21 7.087-6.82 15.002-6.82 5.615 0 9.306 1.659 11.605 4.226 2.754 3.129 3.878 6.177 3.878 15.83v24.87h-10.51V52.704c0-7.915-.56-13.45-8.476-13.45-6.552 0-9.493 5.054-9.493 12.167V74.9h-10.51V52.705c0-7.915-.56-13.45-8.476-13.45-6.445 0-9.493 5.054-9.493 12.167V74.9H122.9V31.045h10.537v5.616c2.112-3.69 6.819-6.712 13.718-6.712 4.519 0 8.29 1.39 10.856 4.225.749.856 1.31 1.685 1.872 2.62zm81.961-9.466c-4.519-4.332-10.402-7.14-16.98-7.14-6.07 0-10.322 2.514-10.322 6.658 0 4.252 2.995 5.99 8.958 7.14l10.616 2.113c12.14 2.406 19.761 7.246 19.761 18.798 0 13.585-12.06 21.125-27.596 21.125-15.135 0-25.564-8.102-29.602-13.69l10.135-8.691c4.038 5.401 10.803 10.214 19.868 10.214 7.621 0 12.06-2.994 12.06-7.808 0-4.546-3.85-5.802-9.84-6.845l-8.477-1.631c-11.953-2.327-21.018-6.659-21.018-19.495 0-11.765 10.91-19.948 25.27-19.948 11.578 0 20.83 4.332 26.42 10.322zM348.564 9.305v52.438h26.233v13.103h-40.806V9.305zm-26.31 58c-1.498-1.497-3.718-2.78-6.873-3.716 4.118-5.696 6.31-13.183 6.31-21.794 0-19.975-12.22-33.64-31.446-33.64-19.2 0-31.447 13.665-31.447 33.64 0 19.735 11.498 33.64 31.714 33.64 17.221 0 27.035-.695 34.095 3.61 1.176-4.091.695-8.69-2.354-11.74zm-32.036-4.331c-10.964 0-16.82-7.835-16.82-21.259s6.044-21.553 16.82-21.553 16.82 8.13 16.82 21.553c0 13.424-5.856 21.259-16.82 21.259z"/>
  <path fill="url(#a)" d="M430.986 6.196C428.274 2.682 425.15.45 421.405.007c-.45.01-.894.046-1.34.116-13.575 2.148-20.98 21.288-21.327 40.429.347 19.14 7.752 38.281 21.331 40.43.442.07.887.104 1.336.115 3.745-.443 6.869-2.676 9.58-6.19-7.11-7.853-10.553-21.726-10.784-34.355.23-12.629 3.67-26.502 10.785-34.356z" style="fill:url(#a)"/>
  <path fill="url(#b)" d="M490.607.121a9.98 9.98 0 0 0-1.335-.115c-.087-.002-.174-.005-.26-.005-2.709 0-17.209.002-20.505 0-.106 0-.215.003-.325.006 2.531.246 4.859 1.061 6.971 2.36 1.652 1.016 3.161 2.31 4.538 3.828 7.114 7.853 10.554 21.727 10.784 34.355-.23 12.63-3.67 26.502-10.784 34.356-1.377 1.517-2.886 2.812-4.538 3.827-2.112 1.3-4.44 2.115-6.97 2.36.109.004.218.007.324.007 3.296-.002 17.796 0 20.505 0 .086 0 .173-.003.26-.005.449-.01.894-.045 1.335-.115 13.58-2.149 20.988-21.289 21.331-40.43-.343-19.14-7.751-38.281-21.33-40.429z" style="fill:url(#b)"/>
  <path fill="url(#c)" d="M461.834 69.348c-.973 2.072-1.965 3.926-2.991 5.585a.752.752 0 0 0 .067.884c2.279 2.678 4.866 4.501 7.85 5.115.468.096.947.146 1.422.162 2.531-.245 4.859-1.06 6.971-2.36 1.652-1.015 3.161-2.31 4.538-3.827-4.232-5.483-7.461-14.085-10.498-23.872-.113-.355-.615-.354-.72.002-1.95 6.48-4.067 12.827-6.64 18.311z" style="fill:url(#c)"/>
  <path fill="url(#d)" d="M430.986 6.195c4.232 5.483 7.46 14.084 10.497 23.872.11.355.615.354.72-.002 1.951-6.48 4.067-12.827 6.64-18.312.973-2.072 1.965-3.926 2.995-5.585a.751.751 0 0 0-.072-.883c-2.278-2.678-4.862-4.502-7.85-5.116a8.489 8.489 0 0 0-1.433-.163 10.518 10.518 0 0 0-.317-.005L421.665 0a9.46 9.46 0 0 0-.26.005c3.745.443 6.869 2.675 9.58 6.19z" style="fill:url(#d)"/>
  <path fill="url(#e)" d="M475.153 2.368c-2.112-1.3-4.44-2.115-6.97-2.36a8.32 8.32 0 0 0-1.423.162c-11.444 2.351-16.986 22.47-22.168 40.38-4.033 13.96-7.914 26.98-13.606 34.356-2.712 3.514-5.836 5.747-9.581 6.189.087.002.173.005.26.005 2.708 0 17.208-.002 20.501 0 .11 0 .219-.003.325-.006.479-.016.954-.066 1.425-.163 11.445-2.352 16.986-22.47 22.165-40.381 4.032-13.96 7.914-26.98 13.61-34.356-1.377-1.517-2.886-2.811-4.538-3.826z" style="fill:url(#e)"/>
</svg>
